design/assets/logos/discovery-bug.svg

<?xml version="1.0" encoding="UTF-8"?>
<svg width="32px" height="32px" viewBox="0 0 32 32" version="1.1" xmlns="http://www.w3.org/2000/svg" xmlns:xlink="http://www.w3.org/1999/xlink">
    <!-- Generator: Sketch 52.6 (67491) - http://www.bohemiancoding.com/sketch -->
    <title>Artboard</title>
    <desc>Created with Sketch.</desc>
    <g id="Artboard" stroke="none" stroke-width="1" fill="none" fill-rule="evenodd">
        <path d="M24.0806644,9.979197 L30.1026076,16.0011402 L16.0512856,30.0528258 L1.99996364,16.0011402 L8.02190684,9.979197 L10.0293424,11.9866326 L6.01447124,16.0011402 L16.0512856,26.0379546 L26.0881,16.0011402 L22.0732288,11.9866326 L24.0806644,9.979197 Z M20.0661568,13.9938864 L22.0735924,16.001322 L16.0512856,22.0232652 L10.0293424,16.001322 L12.036778,13.9938864 L16.0512856,18.0087576 L20.0661568,13.9938864 Z M14.0440318,7.9719432 L16.0514674,9.9793788 L18.058903,7.9719432 L16.0514674,5.9645076 L14.0440318,7.9719432 Z M16.0514674,1.95 L22.0734106,7.9719432 L16.0514674,13.9938864 L10.0295242,7.9719432 L16.0514674,1.95 Z" id="bug" fill="#FFAE1A"></path>
    </g>
</svg>

<svg width="32" height="32" xmlns="http://www.w3.org/2000/svg"><path d="M24.08 9.98L30.104 16 16.05 30.053 2 16 8.022 9.98l2.007 2.008L6.014 16l10.037 10.037 10.037-10.037-4.015-4.014 2.008-2.008zm-4.014 4.014L22.074 16l-6.023 6.022-6.022-6.022 2.008-2.007 4.014 4.015 4.015-4.015zm-6.022-6.022l2.007 2.007 2.008-2.007-2.008-2.007-2.007 2.007zm2.007-6.022l6.022 6.022-6.022 6.022-6.021-6.022L16.05 1.95z" fill="#FFAE1A" fill-rule="evenodd"/></svg>
